X:1
T:Hide Thou Me
T:Robert Lowry
T:Hide Thou Me
T:Public Domain
T:Public Domain
C:Robert Lowry
Z:Public Domain
%%score ( 1 2 ) ( 3 4 )
L:1/8
M:3/4
K:Ab
V:1 treble 
V:2 treble 
V:3 bass 
V:4 bass 
V:1
 [CE]>[CE] | [CA]3 [Ec] [DB]>[CA] | [CE]2 [CA]4 | [EB]4 (AB) | [Ec]4 [EB][EA] | %5
w: 1.~In Thy|cleft, O Rock of|Ag- es,|hide Thou *|When the fit-|
w: 2.~From the|snare of sin- ful|plea- sure,|hide Thou *|Thou, my soul’s|
w: 3.~In the|lone- ly night of|sor- row,|hide Thou *|Till in glor-|
 [FA]3 [DF] [FA]>[DF] | [CE]2 [CA]4 | [DB]4 [Ec]2 | [CA]4 [CA]>[CA] | [Fd]3 [Fd] [FA]>[FB] | %10
w: ful temp- est rag-|es, hide|Thou me!|Where no mor-|tal arm can sev-|
w: e- ter- nal Trea-|sure, hide|Thou me!|When the world|its power is wield-|
w: y dawns the mor-|row, hide|Thou me!|When we’re near-|ing Jor- dan’s bil-|
 [Ec]2 [Ec]2 [DB][CA] | [EB]3 [EB] [EA]>[EB] | [Ec]2 [Ec]2 [EB][EA] | [FA]3 [DF] [FA]>[DF] | %14
w: er From my heart|Thy love for- ev-|er, Hide me, O|Thou Rock of Ag-|
w: ing, And my heart|is al- most yield-|ing, Hide me, O|Thou Rock of Ag-|
w: low, Let Thy bo-|som be my pil-|low; Hide me, O|Thou Rock of Ag-|
 [CE]2 [CA]4 | [Ec]4 [DB]2 | [CA]4 |] %17
w: es, safe|in Thee!||
w: es, safe|in Thee!||
w: es, safe|in Thee!||
V:2
 x2 | x6 | x6 | x4 E2 | x6 | x6 | x6 | x6 | x6 | x6 | x6 | x6 | x6 | x6 | x6 | x6 | x4 |] %17
w: |||me!||||||||||||||
w: |||me!||||||||||||||
w: |||me!||||||||||||||
V:3
 [A,,A,]>[A,,A,] | [A,,A,]3 [A,,A,] [A,,E,]>[A,,E,] | [A,,A,]2 [A,,A,]4 | [E,G,]4 (F,G,) | %4
 [A,,A,]4 [C,A,][C,A,] | [D,A,]3 [D,A,] [D,A,]>[D,A,] | [A,,A,]2 [A,,A,]4 | [E,G,]4 [E,G,]2 | %8
 [A,,A,]4 A,>A, | [D,A,]3 [D,A,] [D,A,]>[D,A,] | [A,,A,]2 [A,,A,]2 [A,,A,][A,,A,] | %11
 [E,G,]3 [E,G,] [E,F,]>[E,G,] | [A,,A,]2 [A,,A,]2 [C,A,][C,A,] | [D,A,]3 [D,A,] [D,A,]>[D,A,] | %14
 [A,,A,]2 [A,,A,]4 | [E,A,]4 [E,G,]2 | [A,,A,]4 |] %17
V:4
 x2 | x6 | x6 | x4 E,2 | x6 | x6 | x6 | x6 | x6 | x6 | x6 | x6 | x6 | x6 | x6 | x6 | x4 |] %17

